wp-content/themes/watts/images/sp-03.svg

<svg enable-background="new 0 0 90 90" height="90" viewBox="0 0 90 90" width="90" xmlns="http://www.w3.org/2000/svg" xmlns:xlink="http://www.w3.org/1999/xlink"><linearGradient id="a" gradientUnits="userSpaceOnUse" x1="32.0716" x2="65.0374" y1="29.1039" y2="62.0697"><stop offset="0" stop-color="#109bfb"/><stop offset="1" stop-color="#1d3ec0"/></linearGradient><path d="m28.6 33.1 48.4-31.9s.1 9.7-6.1 18.7c-4.1 6-10.2 9.7-14.4 11.9l-20.7 10.9c-7.4 4.1-9 9.1-9.9 13l-3.1 12.3c-.6 2.8-3 8.5-9.8 8.2 0 0 6 0 6.1-9.8v-12.2c-.1-12 4.2-17.3 9.5-21.1zm2.8 17.9-1.3 2.1 27.6-5.5c4-.8 8.6-4.1 11.2-7.6 4-4.8 5.1-11.8 5.1-11.8l-36.6 17.6c-2.5 1.1-4.5 3-6 5.2zm-1 7-1.5 1.3 22.4 2c3.3.3 7.2-.9 10.2-2.4 5.1-2.6 6.7-8.8 6.7-8.8l-32 5.2c-2.2.4-4.2 1.3-5.8 2.7zm-2.1 5.8-1.4.7 16.7 6.5c2.4 1 4.9 1.5 8.4.9 5.8-1 7.8-5.6 7.8-5.6l-26.5-3.3c-1.7-.2-3.4 0-5 .8zm-2.4 4.3-1.3.1 11 9.3c1.6 1.4 4.1 2.3 6.6 2.7 4.6.7 6.9-2.3 6.9-2.3l-19.2-9.2c-1.2-.5-2.6-.8-4-.6zm-2.8 3.8-1-.2 6.2 9.7c.9 1.4 1.9 2.5 4 3.3 1.6.6 4.2.9 5.8.1l-12.1-11.4c-.8-.8-1.8-1.3-2.9-1.5zm-2.8 2.7-.7-.4 2.3 8.9c.3 1.3 1.1 2.3 2.2 3.2 1.8 1.5 4.4 1.8 4.4 1.8l-6.3-11.7c-.5-.7-1.1-1.4-1.9-1.8zm-3.5 1.9-.4-.5-.5 7.3c-.1 1.1.1 1.9 1 3.2.8 1.3 2.9 2.2 2.9 2.2l-2-10.4c-.2-.6-.5-1.3-1-1.8z" fill="url(#a)"/></svg>

<svg version="1.1" id="_x2014_ÎÓÈ_x5F_1" xmlns="http://www.w3.org/2000/svg" xmlns:xlink="http://www.w3.org/1999/xlink"
	 x="0px" y="0px" width="90px" height="90px" viewBox="0 0 90 90" style="enable-background:new 0 0 90 90;" xml:space="preserve">
<style type="text/css">
	.st0{fill:url(#SVGID_1_);}
	.st1{fill:url(#SVGID_2_);}
	.st2{fill:url(#XMLID_2_);}
	.st3{fill-rule:evenodd;clip-rule:evenodd;fill:url(#SVGID_3_);}
</style>
<linearGradient id="XMLID_2_" gradientUnits="userSpaceOnUse" x1="32.0716" y1="29.1039" x2="65.0374" y2="62.0697">
	<stop  offset="0" style="stop-color:#109BFB"/>
	<stop  offset="1" style="stop-color:#1D3EC0"/>
</linearGradient>
<path id="XMLID_535_" class="st2" d="M28.6,33.1L77,1.2c0,0,0.1,9.7-6.1,18.7c-4.1,6-10.2,9.7-14.4,11.9L35.8,42.7
	c-7.4,4.1-9,9.1-9.9,13l-3.1,12.3c-0.6,2.8-3,8.5-9.8,8.2c0,0,6,0,6.1-9.8l0-12.2C19,42.2,23.3,36.9,28.6,33.1z M31.4,51l-1.3,2.1
	l27.6-5.5c4-0.8,8.6-4.1,11.2-7.6c4-4.8,5.1-11.8,5.1-11.8L37.4,45.8C34.9,46.9,32.9,48.8,31.4,51z M30.4,58l-1.5,1.3l22.4,2
	c3.3,0.3,7.2-0.9,10.2-2.4c5.1-2.6,6.7-8.8,6.7-8.8l-32,5.2C34,55.7,32,56.6,30.4,58z M28.3,63.8l-1.4,0.7L43.6,71
	c2.4,1,4.9,1.5,8.4,0.9c5.8-1,7.8-5.6,7.8-5.6L33.3,63C31.6,62.8,29.9,63,28.3,63.8z M25.9,68.1l-1.3,0.1l11,9.3
	c1.6,1.4,4.1,2.3,6.6,2.7c4.6,0.7,6.9-2.3,6.9-2.3l-19.2-9.2C28.7,68.2,27.3,67.9,25.9,68.1z M23.1,71.9l-1-0.2l6.2,9.7
	c0.9,1.4,1.9,2.5,4,3.3c1.6,0.6,4.2,0.9,5.8,0.1L26,73.4C25.2,72.6,24.2,72.1,23.1,71.9z M20.3,74.6l-0.7-0.4l2.3,8.9
	c0.3,1.3,1.1,2.3,2.2,3.2c1.8,1.5,4.4,1.8,4.4,1.8l-6.3-11.7C21.7,75.7,21.1,75,20.3,74.6z M16.8,76.5L16.4,76l-0.5,7.3
	c-0.1,1.1,0.1,1.9,1,3.2c0.8,1.3,2.9,2.2,2.9,2.2l-2-10.4C17.6,77.7,17.3,77,16.8,76.5z"/>
</svg>
